X:8164
T:Wacht auf, ihr sch\"onen V\"oglein
C:Jakob Gippenbusch
O:Germany
N:1642
Z:Transcribed by Frank Nordberg - http://www.musicaviva.com
F:http://abc.musicaviva.com/tunes/gippenbusch-jakob/gippenbusch-wacht-4h.abc
M:3/4
L:1/4
K:C
V:1
ggg|a2g|f2e|d2e|d2c|c3/2d/e|dd2|[1c3:|[2c2e||d2c|d2e/f/|gfe|d2g|g2e|a3/2g/f|ed2|c3|]
V:2
eee|f2e|d2G|B2c|B2A|A3/2B/c|c2B|[1c3:|[2c2c||B2A|B2c/d/|edc|B2d|e2e|c3/2B/A|ccB|c3|]
V:3
ccc|c2c|A3/2B/c|G2G|G2F|F2E|AG2|[1c3:|[2c2G||G2F|G3/2A/ G/F/|EFG|G2B|c2c|c3|AG2|c3|]
V:4
CCC|F,2C|D2C|G,2C|G,2A,|F,2C|F,G,2|[1C3:|[2C2C||G,2F,|G,3/2 F/ E/D/|CDE|G2G,|C2C|F,3/2G,/A,|F,G,2|C3|]
W:
W:
W:  From Musica Viva - http://www.musicaviva.com
W:  the Internet center for free sheet music downloads.

